X:1
T:Mars Hill
M:C|
C:T. S. Macdonald
L: 1/8
K: A
E | A>EC<E A,<EC<E | A>B (c/d/)e/c/ B2 B>c | A>EC<E A,<EC<E | A/B/c/d/ e/c/B/c/ A2 A :|
g | a>e (f/e/)d/c/ d<Bb>g | a>e (d/c/)B/A/ G<BB>g | a>e f/e/d/c/ d/e/f/g/ a>f | e>cB<c A2 A>g |
    a>e f/e/d/c/ d/c/B/A/ B/A/B/c/ | A>Bc<A F2 F>E | A>EC<E A,<EC<E | A/B/c/d/ e/c/B/c/ A3 |]

